src/assets/x-light.svg

<svg fill="none" height="24" viewBox="0 0 25 24" width="25" xmlns="http://www.w3.org/2000/svg"><rect fill="#07101b" height="24" rx="12" width="24" x=".078125"/><path d="m13.4894 10.845 5.5737-6.345h-1.3206l-4.8419 5.5081-3.86435-5.5081h-4.45813l5.84498 8.33-5.84498 6.6531h1.32063l5.10995-5.8181 4.0819 5.8181h4.4581zm-1.8094 2.0581-.5931-.83-4.7119-6.5981h2.02875l3.80375 5.3269.5906.83 4.9438 6.9237h-2.0288z" fill="#fff"/></svg>

<svg width="25" height="24" viewBox="0 0 25 24" fill="none" xmlns="http://www.w3.org/2000/svg">
<rect x="0.078125" width="24" height="24" rx="12" fill="#07101B"/>
<path d="M13.4894 10.845L19.0631 4.5H17.7425L12.9006 10.0081L9.03625 4.5H4.57812L10.4231 12.83L4.57812 19.4831H5.89875L11.0087 13.665L15.0906 19.4831H19.5487L13.4894 10.845ZM11.68 12.9031L11.0869 12.0731L6.375 5.475H8.40375L12.2075 10.8019L12.7981 11.6319L17.7419 18.5556H15.7131L11.68 12.9031Z" fill="white"/>
</svg>
